X:370
T:Greig's pipes
R:Reel
O:Scotland
B:Kerr's Fourth p16 (minor)
B:The Skye Collection p5
Z:Transcription, chords:Mike Long
M:C|
L:1/8
K:A
e|\
"A"eAcA eAAf|"A"eAcA "E"BEEf|"A"eAcA eAcA|"Bm"B/B/B (cA) "E"BEE:|\
|:B|\
"A"(cA)cA cAAB|
"A"(cA)cA "E"(BE)EB|"A"(cA)cA EAcA|"Bm"B/B/B (cA) "E"BEE:|\
|:A|\
"A"EA,CA, EA,A,F|"A"EA,CA, "Bm"FB,B,F|"A"EA,CA, EA,CA,|
"Bm"B,/B,/B, CE "E"FB,B,:|\
|:G|\
"A"AGAE CA,A,G|"A"AGAE "E"FB,B,G|"A"AGAE CDEC|"Bm"B,/B,/B, CE "E"FB,B,:|
